vendor/shopware/storefront/Resources/app/storefront/dist/assets/icon/default/screen-minimize.svg

<svg xmlns="http://www.w3.org/2000/svg" width="24" height="24" viewBox="0 0 24 24">
  <path fill="#758CA3" fill-rule="evenodd" d="M18.4142136,7 L22,7 C22.5522847,7 23,7.44771525 23,8 C23,8.55228475 22.5522847,9 22,9 L16,9 C15.4477153,9 15,8.55228475 15,8 L15,2 C15,1.44771525 15.4477153,1 16,1 C16.5522847,1 17,1.44771525 17,2 L17,5.58578644 L22.2928932,0.292893219 C22.6834175,-0.0976310729 23.3165825,-0.0976310729 23.7071068,0.292893219 C24.0976311,0.683417511 24.0976311,1.31658249 23.7071068,1.70710678 L18.4142136,7 Z M17,18.4142136 L17,22 C17,22.5522847 16.5522847,23 16,23 C15.4477153,23 15,22.5522847 15,22 L15,16 C15,15.4477153 15.4477153,15 16,15 L22,15 C22.5522847,15 23,15.4477153 23,16 C23,16.5522847 22.5522847,17 22,17 L18.4142136,17 L23.7071068,22.2928932 C24.0976311,22.6834175 24.0976311,23.3165825 23.7071068,23.7071068 C23.3165825,24.0976311 22.6834175,24.0976311 22.2928932,23.7071068 L17,18.4142136 Z M7,5.58578644 L7,2 C7,1.44771525 7.44771525,1 8,1 C8.55228475,1 9,1.44771525 9,2 L9,8 C9,8.55228475 8.55228475,9 8,9 L2,9 C1.44771525,9 1,8.55228475 1,8 C1,7.44771525 1.44771525,7 2,7 L5.58578644,7 L0.292893219,1.70710678 C-0.0976310729,1.31658249 -0.0976310729,0.683417511 0.292893219,0.292893219 C0.683417511,-0.0976310729 1.31658249,-0.0976310729 1.70710678,0.292893219 L7,5.58578644 Z M5.58578644,17 L2,17 C1.44771525,17 1,16.5522847 1,16 C1,15.4477153 1.44771525,15 2,15 L8,15 C8.55228475,15 9,15.4477153 9,16 L9,22 C9,22.5522847 8.55228475,23 8,23 C7.44771525,23 7,22.5522847 7,22 L7,18.4142136 L1.70710678,23.7071068 C1.31658249,24.0976311 0.683417511,24.0976311 0.292893219,23.7071068 C-0.0976310729,23.3165825 -0.0976310729,22.6834175 0.292893219,22.2928932 L5.58578644,17 Z"/>
</svg>

<svg xmlns="http://www.w3.org/2000/svg" width="24" height="24" viewBox="0 0 24 24"><path fill="#758CA3" fill-rule="evenodd" d="M18.4142 7H22c.5523 0 1 .4477 1 1s-.4477 1-1 1h-6c-.5523 0-1-.4477-1-1V2c0-.5523.4477-1 1-1s1 .4477 1 1v3.5858l5.2929-5.293c.3905-.3904 1.0237-.3904 1.4142 0 .3905.3906.3905 1.0238 0 1.4143L18.4142 7zM17 18.4142V22c0 .5523-.4477 1-1 1s-1-.4477-1-1v-6c0-.5523.4477-1 1-1h6c.5523 0 1 .4477 1 1s-.4477 1-1 1h-3.5858l5.293 5.2929c.3904.3905.3904 1.0237 0 1.4142-.3906.3905-1.0238.3905-1.4143 0L17 18.4142zM7 5.5858V2c0-.5523.4477-1 1-1s1 .4477 1 1v6c0 .5523-.4477 1-1 1H2c-.5523 0-1-.4477-1-1s.4477-1 1-1h3.5858L.2928 1.7071C-.0975 1.3166-.0975.6834.2929.293c.3906-.3905 1.0238-.3905 1.4143 0L7 5.5858zM5.5858 17H2c-.5523 0-1-.4477-1-1s.4477-1 1-1h6c.5523 0 1 .4477 1 1v6c0 .5523-.4477 1-1 1s-1-.4477-1-1v-3.5858l-5.2929 5.293c-.3905.3904-1.0237.3904-1.4142 0-.3905-.3906-.3905-1.0238 0-1.4143L5.5858 17z"/></svg>
